!!!COM: Bach, Johann Sebastian
!!!OTL@@DE: 305. Wie s&ouml;chn leuchtet der Morgenstern
!!!OTL@EN: How brightly shines the morning star
!!!SCA: BWV 36.4
**harm	**root	**kern	**kern	**kern	**kern
*staff2	*	*staff2	*staff2	*staff1	*staff1
*Iorgan	*Iorgan	*Iorgan	*Iorgan	*Iorgan	*Iorgan
*>[A,A,B]	*>[A,A,B]	*>[A,A,B]	*>[A,A,B]	*>[A,A,B]	*>[A,A,B]
*>norep[A,B]	*>norep[A,B]	*>norep[A,B]	*>norep[A,B]	*>norep[A,B]	*>norep[A,B]
*>A	*>A	*>A	*>A	*>A	*>A
!	!	!bass	!tenor	!alto	!sprno
*	*	*clefF4	*clefF4	*clefG2	*clefG2
*k[f#c#g#d#]	*k[f#c#g#d#]	*k[f#c#g#d#]	*k[f#c#g#d#]	*k[f#c#g#d#]	*k[f#c#g#d#]
*E:	*E:	*E:	*E:	*E:	*E:
*met(c)	*met(c)	*met(c)	*met(c)	*met(c)	*met(c)
*M4/4	*M4/4	*M4/4	*M4/4	*M4/4	*M4/4
*MM60	*MM60	*MM60	*MM60	*MM60	*MM60
I	4DD	4E	4G#	4B	4e
=1	=1	=1	=1	=1	=1
Vb	4AA	4D#	4F#	4B	4b
I	8DD	8EL	8EL	4B	8g#L
Vb	8AA	8D#J	8F#J	.	8f#J
vi	4BB	4C#	8G#L	4c#	4e
.	.	.	8A#J	.	.
iii	4FF#	8G#L	4B	4d#	4b
.	.	8F#J	.	.	.
=2	=2	=2	=2	=2	=2
vi7	4BB	8EL	4B	4g#	8.cc#L
.	.	8C#J	.	.	.
.	.	.	.	.	32dd#LL
.	.	.	.	.	32eeJJJ
V/V	4EE	4F#	4A#	4f#	8dd#L
.	.	.	.	.	8cc#J
V;	4AA;	4BB;	4d#;	4f#;	4b;
I	4DD	4E	4e	4g#	4b
=3	=3	=3	=3	=3	=3
IV	4GG	4A	4e	4a	4cc#
viiob	4CC#	8G#L	4f#	4a	4dd#
.	.	8F#J	.	.	.
Ib	4DD	8G#L	8BL	4g#	4ee
.	.	8A#J	8c#J	.	.
V	4AA	4B	4d#	8f#L	4dd#
.	.	.	.	8bJ	.
=4	=4	=4	=4	=4	=4
vi7b	8BB	4E	8G#L	4b	8cc#L
I	8DD	.	8g#J	.	8eeJ
V7/V	4EE	4F#	8f#L	4a#	8dd#L
.	.	.	8eJ	.	8cc#J
V;	4AA;	4BB;	4d#;	4f#;	4b;
I	4DD	4E	4B	4e	4g#
=5	=5	=5	=5	=5	=5
IV	4GG	4A	4A	4e	4cc#
Ib	4DD	4G#	4B	4e	4b
viio7b	4CC#	4F#	8c#L	8eL	4a
.	.	.	8AJ	8d#J	.
I	4DD	4E	4B	4e	4g#
=6	=6	=6	=6	=6	=6
V7	2AA	2BB	4.B	4e	2f#
.	.	.	.	4d#	.
.	.	.	8A	.	.
I;	4DD;	4E;	4G#;	4B;	4e;
=7:|!	=7:|!	=7:|!	=7:|!	=7:|!	=7:|!
!!linebreak: 2
*>B	*>B	*>B	*>B	*>B	*>B
Vb	2AA	2D#	2B	2f#	2b
I;	2DD;	2E;	2B;	2e;	2g#;
=8	=8	=8	=8	=8	=8
V	2AA	2BB	2d#	2f#	2b
I;	2DD;	2E;	2B;	2e;	2g#;
=9	=9	=9	=9	=9	=9
I	4DD	8EL	4B	4e	4g#
.	.	8F#	.	.	.
Ib	4DD	8G#	4B	4e	4g#
.	.	8AJ	.	.	.
V	4AA	8BL	4B	4d#	4f#
.	.	8c#	.	.	.
V	4AA	8B	4B	4d#	4f#
.	.	8AJ	.	.	.
=10	=10	=10	=10	=10	=10
Ib	4DD	8G#L	4B	4e	4g#
.	.	8F#	.	.	.
I	4DD	8G#	4B	4e	4g#
.	.	8EJ	.	.	.
V	4AA	8BBL	4B	4d#	4f#
.	.	8B	.	.	.
viiob/II	4DD#	8A	4B	4e#	4g#
.	.	8G#J	.	.	.
=11	=11	=11	=11	=11	=11
ii	4EE	4F#	8c#L	4f#	4a
.	.	.	8d#J	.	.
vi	4BB	8c#L	4e	8eL	4g#
.	.	8BJ	.	8d#J	.
ii7b	4EE	4A	8eL	4c#	2f#
.	.	.	16d#L	.	.
.	.	.	16c#JJ	.	.
V7	4AA	4B	8BL	4d#	.
.	.	.	8AJ	.	.
=12	=12	=12	=12	=12	=12
I;	2DD;	2E;	2G#;	2B;	2e;
vi	4BB	4C#	8G#L	4g#	4ee
.	.	.	8A#J	.	.
V/VI	4FF#	4GG#	4B#	8g#L	4dd#
.	.	.	.	8f#J	.
=13	=13	=13	=13	=13	=13
IV	4GG	4AA	4c#	8eL	4cc#
.	.	.	.	8f#J	.
iiib	4FF#	4BB	4d#	[4g#	4b
IV7	8GG	8C#L	8eL	8g#]	4a
viio	8CC#	8D#J	8f#J	4f#	.
I	4DD	4E	4B	.	4g#
.	.	.	.	[8e	.
=14	=14	=14	=14	=14	=14
ii	4EE	4AA	4c#	8eL]	2f#
.	.	.	.	16d#L	.
.	.	.	.	16c#JJ	.
V7	4AA	4BB	8BL	4d#	.
.	.	.	8AJ	.	.
I;	4DD;	4EE;	4G#;	4B;	4e;
==	==	==	==	==	==
*-	*-	*-	*-	*-	*-
!!!ENC: Craig Stuart Sapp
!!!END: 2004/12/06/
!!chor2scor: -l 2 -s 0.6 -o %b.pmx!!chor2scor: -l 2 -s 0.6 -o %b.pmx
